svg/furkot/freepik/book.svg

<svg viewBox="0 0 512 512" xmlns="http://www.w3.org/2000/svg"><path d="m505.41 428.552-41.693-41.692c-4.603-4.6-10.517-7.081-16.534-7.461l-14.163-14.161c21.04-33.449 17.014-78.264-12.082-107.358-33.772-33.774-88.722-33.773-122.498 0-33.768 33.773-33.768 88.725.004 122.498 29.096 29.096 73.911 33.12 107.354 12.081l14.164 14.161c.376 6.021 2.86 11.935 7.462 16.535l41.693 41.693c10.021 10.023 26.27 10.021 36.295 0 10.019-10.022 10.021-26.271-.002-36.296zm-102.616-66.32c-23.765 23.764-62.435 23.764-86.203 0-23.764-23.765-23.764-62.434 0-86.202 23.763-23.765 62.43-23.765 86.203.002 23.763 23.765 23.763 62.435 0 86.2z"/><path d="m283.953 244.742c19.846-19.845 46.264-30.774 74.391-30.774s54.545 10.928 74.391 30.774c16.942 16.94 27.66 39.394 30.184 63.23 1.94 18.333-.971 36.931-8.419 53.808l.253.253c7.858 1.923 15.033 5.962 20.758 11.684l4.115 4.116v-287.789c0-4.532-2.243-8.771-5.995-11.32-36.746-24.964-78.481-38.162-120.708-38.162-39.345 0-78.263 11.464-113.11 33.227-34.86-21.763-73.787-33.227-113.132-33.227-42.215 0-83.951 13.197-120.688 38.162-3.75 2.55-5.993 6.79-5.993 11.32v320.81c0 5.071 2.801 9.725 7.283 12.1 4.482 2.373 9.902 2.072 14.099-.776 32.178-21.865 68.595-33.429 105.304-33.429 36.712 0 73.135 11.564 105.326 33.432 2.304 1.572 4.992 2.367 7.683 2.367.015 0 .03-.003.047-.003 2.759.036 5.516-.76 7.873-2.367 13.765-9.354 28.311-16.806 43.321-22.29-2.403-2.011-4.74-4.123-6.98-6.365-41.022-41.019-41.022-107.762-.003-148.781zm-4.533-111.925c25.67-17.55 60.748-20.17 79.376-20.17 18.626 0 53.707 2.621 79.375 20.17 6.321 4.32 7.939 12.942 3.623 19.26-4.321 6.318-12.947 7.939-19.262 3.62-14.253-9.745-37.485-15.335-63.734-15.335-26.251 0-49.484 5.589-63.735 15.335-2.391 1.634-5.115 2.42-7.808 2.42-4.424 0-8.769-2.112-11.456-6.039-4.318-6.317-2.696-14.941 3.621-19.261zm0 59.953c25.67-17.55 60.748-20.17 79.376-20.17 18.626 0 53.707 2.622 79.375 20.17 6.321 4.32 7.939 12.942 3.623 19.26-4.321 6.318-12.947 7.939-19.262 3.62-14.253-9.744-37.485-15.334-63.734-15.334-26.251 0-49.484 5.588-63.735 15.334-2.391 1.635-5.115 2.42-7.808 2.42-4.424 0-8.769-2.112-11.456-6.038-4.318-6.318-2.696-14.942 3.621-19.262zm-75.596 139.168c-4.319 6.319-12.944 7.939-19.262 3.621-14.253-9.746-37.485-15.335-63.735-15.335s-49.483 5.589-63.735 15.335c-2.391 1.633-5.115 2.421-7.808 2.421-4.423 0-8.769-2.112-11.455-6.039-4.319-6.319-2.698-14.941 3.621-19.259 25.67-17.552 60.75-20.169 79.377-20.169s53.707 2.622 79.377 20.169c6.318 4.314 7.938 12.938 3.62 19.256zm0-59.953c-4.319 6.319-12.944 7.939-19.262 3.621-14.253-9.746-37.485-15.335-63.735-15.335s-49.483 5.589-63.735 15.335c-2.391 1.633-5.115 2.421-7.808 2.421-4.423 0-8.769-2.112-11.455-6.039-4.319-6.319-2.698-14.941 3.621-19.26 25.67-17.55 60.75-20.17 79.377-20.17s53.707 2.621 79.377 20.17c6.318 4.315 7.938 12.939 3.62 19.257zm0-59.953c-4.319 6.317-12.944 7.939-19.262 3.62-14.253-9.745-37.485-15.335-63.735-15.335s-49.483 5.589-63.735 15.335c-2.391 1.634-5.115 2.419-7.808 2.419-4.423 0-8.769-2.111-11.455-6.038-4.319-6.318-2.698-14.942 3.621-19.261 25.67-17.549 60.75-20.169 79.377-20.169s53.707 2.621 79.377 20.169c6.318 4.318 7.938 12.942 3.62 19.26zm0-59.954c-4.319 6.318-12.944 7.939-19.262 3.62-14.253-9.744-37.485-15.334-63.735-15.334s-49.483 5.588-63.735 15.334c-2.391 1.635-5.115 2.42-7.808 2.42-4.423 0-8.769-2.111-11.455-6.038-4.319-6.318-2.698-14.942 3.621-19.261 25.67-17.549 60.75-20.169 79.377-20.169s53.707 2.621 79.377 20.169c6.318 4.318 7.938 12.942 3.62 19.259z"/></svg>

<svg xmlns="http://www.w3.org/2000/svg" viewBox="0 0 512 512"><path d="M505.41 428.552L463.717 386.86C459.114 382.26 453.2 379.779 447.183 379.399L433.02 365.238C454.06 331.789 450.034 286.974 420.938 257.88 387.166 224.106 332.216 224.107 298.44 257.88 264.672 291.653 264.672 346.605 298.444 380.378 327.54 409.474 372.355 413.498 405.798 392.459L419.962 406.62C420.338 412.641 422.822 418.555 427.424 423.155L469.117 464.848C479.138 474.871 495.387 474.869 505.412 464.848 515.431 454.826 515.433 438.577 505.41 428.552ZM402.794 362.232C379.029 385.996 340.359 385.996 316.591 362.232 292.827 338.467 292.827 299.798 316.591 276.03 340.354 252.265 379.021 252.265 402.794 276.032 426.557 299.797 426.557 338.467 402.794 362.232Z"/><path d="M283.953 244.742C303.799 224.897 330.217 213.968 358.344 213.968S412.889 224.896 432.735 244.742C449.677 261.682 460.395 284.136 462.919 307.972 464.859 326.305 461.948 344.903 454.5 361.78L454.753 362.033C462.611 363.956 469.786 367.995 475.511 373.717L479.626 377.833V90.044C479.626 85.512 477.383 81.273 473.631 78.724 436.885 53.76 395.15 40.562 352.923 40.562 313.578 40.562 274.66 52.026 239.813 73.789 204.953 52.026 166.026 40.562 126.681 40.562 84.466 40.562 42.73 53.759 5.993 78.724 2.243 81.274 0 85.514 0 90.044V410.854C0 415.925 2.801 420.579 7.283 422.954 11.765 425.327 17.185 425.026 21.382 422.178 53.56 400.313 89.977 388.749 126.686 388.749 163.398 388.749 199.821 400.313 232.012 422.181 234.316 423.753 237.004 424.548 239.695 424.548 239.71 424.548 239.725 424.545 239.742 424.545 242.501 424.581 245.258 423.785 247.615 422.178 261.38 412.824 275.926 405.372 290.936 399.888 288.533 397.877 286.196 395.765 283.956 393.523 242.934 352.504 242.934 285.761 283.953 244.742ZM279.42 132.817C305.09 115.267 340.168 112.647 358.796 112.647 377.422 112.647 412.503 115.268 438.171 132.817 444.492 137.137 446.11 145.759 441.794 152.077 437.473 158.395 428.847 160.016 422.532 155.697 408.279 145.952 385.047 140.362 358.798 140.362 332.547 140.362 309.314 145.951 295.063 155.697 292.672 157.331 289.948 158.117 287.255 158.117 282.831 158.117 278.486 156.005 275.799 152.078 271.481 145.761 273.103 137.137 279.42 132.817ZM279.42 192.77C305.09 175.22 340.168 172.6 358.796 172.6 377.422 172.6 412.503 175.222 438.171 192.77 444.492 197.09 446.11 205.712 441.794 212.03 437.473 218.348 428.847 219.969 422.532 215.65 408.279 205.906 385.047 200.316 358.798 200.316 332.547 200.316 309.314 205.904 295.063 215.65 292.672 217.285 289.948 218.07 287.255 218.07 282.831 218.07 278.486 215.958 275.799 212.032 271.481 205.714 273.103 197.09 279.42 192.77ZM203.824 331.938C199.505 338.257 190.88 339.877 184.562 335.559 170.309 325.813 147.077 320.224 120.827 320.224S71.344 325.813 57.092 335.559C54.701 337.192 51.977 337.98 49.284 337.98 44.861 337.98 40.515 335.868 37.829 331.941 33.51 325.622 35.131 317 41.45 312.682 67.12 295.13 102.2 292.513 120.827 292.513S174.534 295.135 200.204 312.682C206.522 316.996 208.142 325.62 203.824 331.938ZM203.824 271.985C199.505 278.304 190.88 279.924 184.562 275.606 170.309 265.86 147.077 260.271 120.827 260.271S71.344 265.86 57.092 275.606C54.701 277.239 51.977 278.027 49.284 278.027 44.861 278.027 40.515 275.915 37.829 271.988 33.51 265.669 35.131 257.047 41.45 252.728 67.12 235.178 102.2 232.558 120.827 232.558S174.534 235.179 200.204 252.728C206.522 257.043 208.142 265.667 203.824 271.985ZM203.824 212.032C199.505 218.349 190.88 219.971 184.562 215.652 170.309 205.907 147.077 200.317 120.827 200.317S71.344 205.906 57.092 215.652C54.701 217.286 51.977 218.071 49.284 218.071 44.861 218.071 40.515 215.96 37.829 212.033 33.51 205.715 35.131 197.091 41.45 192.772 67.12 175.223 102.2 172.603 120.827 172.603S174.534 175.224 200.204 192.772C206.522 197.09 208.142 205.714 203.824 212.032ZM203.824 152.078C199.505 158.396 190.88 160.017 184.562 155.698 170.309 145.954 147.077 140.364 120.827 140.364S71.344 145.952 57.092 155.698C54.701 157.333 51.977 158.118 49.284 158.118 44.861 158.118 40.515 156.007 37.829 152.08 33.51 145.762 35.131 137.138 41.45 132.819 67.12 115.27 102.2 112.65 120.827 112.65S174.534 115.271 200.204 132.819C206.522 137.137 208.142 145.761 203.824 152.078Z"/></svg>
